!!!OTL: Pretty Polly
!!!ONM: 46.
**kern
*clefG2
*k[]
*C:
*M3/4
*MM80
{4g
=1
4c
4c
4d
=2
8e
8e
4d
4c
=3
4g
4g
8d
8e
=4
4c
4r}
{4g
=5
4c
4c
4d
=6
4e
4d
8c
8e
=7
4g
4g
(8d
8e)
=8
4.c
8r}
{4e
=9
4g
4g
4cc
=10
4.g
8r
8e
8f
=11
4g
4g
8g
8e
=12
4.d
8r}
{4e
=13
4c
4c
8d
8d
=14
4e
4d
4e
=15
4g
4g
(8d
8e)
=16
4.c
8r}
==
*-
!!!CNT: Folksongs of Maritime Canada
!!!MRD: 1928///-1932///
!!!OCL: Helen Creighton
!!!YOR: Songs and Ballads from Nova Scotia
!!!PPR: J.M. Dent & Sons, Limited
!!!PPP: Toronto, Canada
!!!PDT: 1932///
!!!reprint: Dover Publications, 1992: ISBN 0-486-21703-5
!!!ENC1: Craig Stuart Sapp (music and bibliographic data)                       
!!!ENC2: Marcus Pearce (phrase markings and key designations)                   
!!!ENC3: Darrell Conklin (phrase markings and key designations)   
!!!END: 2002/04/10/
!!!EEV: 2004/06/05
!!!MPN: Mrs. William McNab
!!!PPG: 94
!!!EFL: 47/152
!!!ARE: Canada; Nova Scotia
!!!verses: 1
!!!VTS: 1640702782
